X:1146
T:Ding Dong, Ding Dong.
M:C
L:1/4
Q:1/2=104
N:final repeat is marked by four dots but no start repeat marked
Z:Jack Campin * www.campin.me.uk * 2009
K:G
D|GG  FA|     G2  G z/G/|BB dc|B3\
G|E>F GG|({FA}G2) A>  B |ce dF|G3
B|BB  cc|     B3    B   |dc BA|d3\
G|E>F GG|({FA}G2) A B   |ce dF|G3
B|BB  cc|     B3    B   |Ae dF|G3 G-|G3 A|[G3B3]:|

